public/assets/images/lock.svg

<svg width="60" height="60" viewBox="0 0 60 60" fill="none" xmlns="http://www.w3.org/2000/svg">
<path opacity="0.5" d="M0 42.6506C0 34.472 0 30.3827 2.63604 27.842C5.27208 25.3012 9.51472 25.3012 18 25.3012H42C50.4853 25.3012 54.7279 25.3012 57.364 27.842C60 30.3827 60 34.472 60 42.6506C60 50.8292 60 54.9185 57.364 57.4592C54.7279 60 50.4853 60 42 60H18C9.51472 60 5.27208 60 2.63604 57.4592C0 54.9185 0 50.8292 0 42.6506Z" fill="url(#paint0_radial_646_4890)"/>
<path d="M30 48.8675C33.3137 48.8675 36 46.1812 36 42.8675C36 39.5538 33.3137 36.8675 30 36.8675C26.6863 36.8675 24 39.5538 24 42.8675C24 46.1812 26.6863 48.8675 30 48.8675Z" fill="url(#paint1_radial_646_4890)"/>
<path d="M14.25 19.5181C14.25 11.134 21.3015 4.33735 30 4.33735C38.6985 4.33735 45.75 11.134 45.75 19.5181V25.3115C47.4521 25.3269 48.9405 25.3648 50.25 25.4591V19.5181C50.25 8.73854 41.1838 0 30 0C18.8162 0 9.75 8.73854 9.75 19.5181V25.4591C11.0595 25.3648 12.5479 25.3269 14.25 25.3115V19.5181Z" fill="url(#paint2_radial_646_4890)"/>
<defs>
<radialGradient id="paint0_radial_646_4890" cx="0" cy="0" r="1" gradientUnits="userSpaceOnUse" gradientTransform="translate(77.6864 53.9468) rotate(-165.22) scale(61.479 28.7349)">
<stop stop-color="#C6B38A"/>
<stop offset="0.463601" stop-color="#F3C691"/>
<stop offset="1" stop-color="#B4703E"/>
</radialGradient>
<radialGradient id="paint1_radial_646_4890" cx="0" cy="0" r="1" gradientUnits="userSpaceOnUse" gradientTransform="translate(39.5373 46.7741) rotate(-155.477) scale(13.0678 9.35042)">
<stop stop-color="#C6B38A"/>
<stop offset="0.463601" stop-color="#F3C691"/>
<stop offset="1" stop-color="#B4703E"/>
</radialGradient>
<radialGradient id="paint2_radial_646_4890" cx="0" cy="0" r="1" gradientUnits="userSpaceOnUse" gradientTransform="translate(62.1883 21.0178) rotate(-163.998) scale(41.7428 20.9598)">
<stop stop-color="#C6B38A"/>
<stop offset="0.463601" stop-color="#F3C691"/>
<stop offset="1" stop-color="#B4703E"/>
</radialGradient>
</defs>
</svg>

<svg xmlns="http://www.w3.org/2000/svg" width="60" height="60" fill="none" xmlns:v="https://vecta.io/nano"><path opacity=".5" d="M0 42.651c0-8.179 0-12.268 2.636-14.809S9.515 25.301 18 25.301h24c8.485 0 12.728 0 15.364 2.541S60 34.472 60 42.651s0 12.268-2.636 14.809S50.485 60 42 60H18c-8.485 0-12.728 0-15.364-2.541S0 50.829 0 42.651z" fill="url(#A)"/><path d="M30 48.868a6 6 0 1 0 0-12 6 6 0 1 0 0 12z" fill="url(#B)"/><path d="M14.25 19.518c0-8.384 7.052-15.181 15.75-15.181s15.75 6.797 15.75 15.181v5.793c1.702.015 3.191.053 4.5.148v-5.941C50.25 8.739 41.184 0 30 0S9.75 8.739 9.75 19.518v5.941c1.31-.094 2.798-.132 4.5-.148v-5.793z" fill="url(#C)"/><defs><radialGradient id="A" cx="0" cy="0" r="1" gradientUnits="userSpaceOnUse" gradientTransform="translate(77.6864 53.9468) rotate(-165.22) scale(61.479 28.7349)"><stop stop-color="#c6b38a"/><stop offset=".464" stop-color="#f3c691"/><stop offset="1" stop-color="#b4703e"/></radialGradient><radialGradient id="B" cx="0" cy="0" r="1" gradientUnits="userSpaceOnUse" gradientTransform="translate(39.5373 46.7741) rotate(-155.477) scale(13.0678 9.35042)"><stop stop-color="#c6b38a"/><stop offset=".464" stop-color="#f3c691"/><stop offset="1" stop-color="#b4703e"/></radialGradient><radialGradient id="C" cx="0" cy="0" r="1" gradientUnits="userSpaceOnUse" gradientTransform="translate(62.1883 21.0178) rotate(-163.998) scale(41.7428 20.9598)"><stop stop-color="#c6b38a"/><stop offset=".464" stop-color="#f3c691"/><stop offset="1" stop-color="#b4703e"/></radialGradient></defs></svg>
